X:161
T: BEI DER STILLEN MONDESHELLE
N: B0193
O: Europa, Mitteleuropa, Deutschland
R: Natur - Lied, Wasser
M: 6/8
L: 1/8
K: Eb
 | E2GB2G | e2cB2G |
e2cB2G | F2AG3 |
F2AG2B | =A2cB2d |
c2ed2f | F2=AB3 |
f2de2B | f2de2B |
A2FG2D | B2GF3 |
E2GB2G | e2cB2G |
A2BG2E | F2GE3

@@@ Tune index: 1964
